!!!COM: Bach, Johann Sebastian
!!!CDT: 1685/3//-1750/7/28/
!!!OTL@@DE: Was frag' ich nach der Welt
!!!AGN: 4-Part Chorale
!!!SCT: BH 255
!!!SCT: BWV 64
**harm	**root	**kern	**kern	**kern	**kern
!	!	!bass	!tenor	!alto	!soprno
*	*Iorgan	*Iorgan	*Iorgan	*Iorgan	*Iorgan
*M4/4	*M4/4	*M4/4	*M4/4	*M4/4	*M4/4
*met(c)	*met(c)	*met(c)	*met(c)	*met(c)	*met(c)
*MM60	*MM60	*MM60	*MM60	*MM60	*MM60
*k[f#c#g#d#a#]	*k[f#c#g#d#a#]	*k[f#c#g#d#a#]	*k[f#c#g#d#a#]	*k[f#c#g#d#a#]	*k[f#c#g#d#a#]
*B:	*B:	*B:	*B:	*B:	*B:
Vb	4AA	4AA#	4F#	4c#	4f#
=1	=1	=1	=1	=1	=1
I	4DD	8BB	4F#	4B	4d#
.	.	8AA#	.	.	.
I	4DD	8BB	4F#	8d#	4B
.	.	8C#	.	8c#	.
Ib	4DD	8D#	4F#	4B	4f#
.	.	8C#	.	.	.
Ib	4DD	8D#	4B	8f#	4f#
.	.	8BB	.	8d#	.
=2	=2	=2	=2	=2	=2
IV;	2.GG;	2.E;	2.B;	2.e;	2.g#;
IV	4GG	4EE	4E	4B	4g#
=3	=3	=3	=3	=3	=3
V7	4AA	8FF#	4.E	8A#	4c#
.	.	8EE	.	8B	.
V7	4AA	8FF#	.	8A#	4c#
.	.	8GG#	8D#	8G#	.
Vb	4AA	8AA#	4C#	4F#	4f#
.	.	8GG#	.	.	.
V7b	4AA	8AA#	4F#	4c#	4e
.	.	8FF#	.	.	.
=4	=4	=4	=4	=4	=4
I	4DD	4BB	4F#	4B	4d#
I;	4DD;	4BB;	4D#;	4F#;	4B;
r	4r	4r	4r	4r	4r
Ib	4DD	4D#	4F#	4B	4f#
=5	=5	=5	=5	=5	=5
IV	4GG	4E	8E	4B	4g#
.	.	.	8F#	.	.
ii	4EE	4C#	4G#	4e	4g#
Ic	4DD	4F#	8A#	4d#	4f#
.	.	.	8B	.	.
V7	4AA	4FF#	8B	4c#	4e
.	.	.	8A#	.	.
=6	=6	=6	=6	=6	=6
I;	2.DD;	2.BB;	2.B;	2.F#;	2.d#;
V	4AA	4FF#	4A#	4A#	4c#
=7	=7	=7	=7	=7	=7
I	4DD	8BB	4F#	4B	4d#
.	.	8AA#	.	.	.
V7d/V	4EE	8BB	4G#	4c#	4e#
.	.	8GG#	.	.	.
Vb	4.AA	8AA#	4.F#	4.c#	4.f#
.	.	8GG#	.	.	.
.	.	8AA#	.	.	.
vib	8BB	8BB	8B	8d#	8g#
=8	=8	=8	=8	=8	=8
V/V	2EE	4C#	2G#	2c#	2e#
.	.	4CC#	.	.	.
V;	4AA;	4FF#;	4A#;	4c#;	4f#;
V	4AA	4FF#	4A#	4c#	4f#
!!linebreak: 2
=9	=9	=9	=9	=9	=9
I	4DD	8BB	4B	8d#	4f#
.	.	8AA#	.	8c#	.
I	4DD	8BB	4B	8d#	4f#
.	.	8C#	.	8e	.
Ib	4DD	8D#	4B	8f#	4b
.	.	8C#	.	8e	.
I7b	4DD	8D#	4B	8f#	4a
.	.	8BB	.	8d#	.
=10	=10	=10	=10	=10	=10
IV;	2.GG;	2.E;	2.B;	2.e;	2.g#;
Vb/II	4BB	4BB#	8G#	4d#	4g#
.	.	.	8F#	.	.
=11	=11	=11	=11	=11	=11
II	4EE	8C#	8E#	4c#	4g#
.	.	8BB#	8D#	.	.
II	4EE	8C#	8E#	4c#	4g#
.	.	8D#	8F#	.	.
IIb	4EE	8E#	8G#	4c#	4cc#
.	.	8D#	8F#	.	.
II7b	4EE	8E#	8G#	4c#	4b
.	.	8C#	8E#	.	.
=12	=12	=12	=12	=12	=12
V;	2.AA;	2.F#;	2.F#;	2.c#;	2.a#
Ib	4DD	4D#	4B	4B	4f#
=13	=13	=13	=13	=13	=13
IV	4GG	8E	4B	4e	4g#
.	.	8F#	.	.	.
Ib	4DD	8E	4B	4f#	4f#
.	.	8D#	.	.	.
IV	4GG	8E	4B	4e	4g#
.	.	8D#	.	.	.
viioD7c/vi	4AA#	8E	4c#	8g#	4a#
.	.	8C#	.	8f##	.
=14	=14	=14	=14	=14	=14
vi;	2.BB;	2.G#;	2.d#;	2.g#;	2.b;
Vb	4AA	4AA#	4c#	8f#	4f#
.	.	.	.	8e	.
=15	=15	=15	=15	=15	=15
I	4DD	8BB	4B	4d#	4f#
.	.	8C#	.	.	.
iii7	4FF#	8D#	4F#	8c#	8e
.	.	8E	.	8B	8d#
V	4AA	4F#	8F#	4B	4c#
.	.	.	8G#	.	.
V	4AA	4FF#	8F#	4A#	4c#
.	.	.	8E	.	.
=16	=16	=16	=16	=16	=16
I;	2.DD;	2.BB;	2.D#;	2.F#;	2.B;
==	==	==	==	==	==
*-	*-	*-	*-	*-	*-
!!chor2scor: -l 2 -s 0.6 -o %b.pmx
!!!YEC: Copyright 1994, David Huron
!!!YEC: Changes/Additions 2001 by Craig Stuart Sapp
!!!YEN: United States of America
!!!SMA: 371 Bach Chorales, edited by Ludwig Erk, C.F. Peters
!!!PDT: 1850, 1865
!!!ONB: Harmony and Root analysis done manually
